src/helpers/heroicons/solid/arrow-uturn-right.svg

<svg width="24" height="24" viewBox="0 0 24 24" fill="none" xmlns="http://www.w3.org/2000/svg">
<path fill-rule="evenodd" clip-rule="evenodd" d="M14.4697 2.46967C14.7626 2.17678 15.2374 2.17678 15.5303 2.46967L21.5303 8.46967C21.8232 8.76256 21.8232 9.23744 21.5303 9.53033L15.5303 15.5303C15.2374 15.8232 14.7626 15.8232 14.4697 15.5303C14.1768 15.2374 14.1768 14.7626 14.4697 14.4697L19.1893 9.75H9C6.10051 9.75 3.75 12.1005 3.75 15C3.75 17.8995 6.10051 20.25 9 20.25H12C12.4142 20.25 12.75 20.5858 12.75 21C12.75 21.4142 12.4142 21.75 12 21.75H9C5.27208 21.75 2.25 18.7279 2.25 15C2.25 11.2721 5.27208 8.25 9 8.25H19.1893L14.4697 3.53033C14.1768 3.23744 14.1768 2.76256 14.4697 2.46967Z" />
</svg>

<svg xmlns="http://www.w3.org/2000/svg" viewBox="0 0 24 24" fill="currentColor" aria-hidden="true" data-slot="icon">
  <path fill-rule="evenodd" d="M14.47 2.47a.75.75 0 0 1 1.06 0l6 6a.75.75 0 0 1 0 1.06l-6 6a.75.75 0 1 1-1.06-1.06l4.72-4.72H9a5.25 5.25 0 1 0 0 10.5h3a.75.75 0 0 1 0 1.5H9a6.75 6.75 0 0 1 0-13.5h10.19l-4.72-4.72a.75.75 0 0 1 0-1.06Z" clip-rule="evenodd"/>
</svg>
